src/pos-icons/format-overline.svg

<svg height="24" viewBox="0 0 24 24" width="24" xmlns="http://www.w3.org/2000/svg"><path d="m5 5h14v-2h-14zm4.62 11 2.38-6.33 2.37 6.33m-3.37-9-5.5 14h2.25l1.12-3h6.25l1.13 3h2.25l-5.5-14z"/></svg>

<?xml version="1.0" encoding="UTF-8"?><!DOCTYPE svg PUBLIC "-//W3C//DTD SVG 1.1//EN" "http://www.w3.org/Graphics/SVG/1.1/DTD/svg11.dtd"><svg xmlns="http://www.w3.org/2000/svg" xmlns:xlink="http://www.w3.org/1999/xlink" version="1.1" id="mdi-format-overline" width="24" height="24" viewBox="0 0 24 24"><path d="M5,5H19V3H5V5M9.62,16L12,9.67L14.37,16M11,7L5.5,21H7.75L8.87,18H15.12L16.25,21H18.5L13,7H11Z" /></svg>
